svg/OSM-icons/amenity #7bffff °373737 !label=enamenities,deEinrichtungen/12096;amenity=parking;!#access=private;feature_group=car;[parking];[contact];!label=enparking private,dePrivat- Parkplatz.svg

<svg xmlns="http://www.w3.org/2000/svg" viewBox="0 0 580 580" enable-background="new 0 0 580 580"><path fill="#111" stroke="#eee" stroke-width="3.408" d="m66.28 1.768c-41.34 0-64.57 21.371-64.57 65.04v450.12c0 40.844 20.895 62.23 62.19 62.23h452.02c41.31 0 62.23-20.315 62.23-62.23v-450.12c0-42.601-20.924-65.04-63.52-65.04-.004 0-448.5-.143-448.35 0z"/><g fill="#fff"><path opacity=".75" d="m129.87 69.55c-2.97.0001-5.932 1.213-8.03 3.313-2.101 2.101-3.313 5.062-3.313 8.03v22.469h35.34v-33.813h-24m66.938 0v32.28h41.938v-32.28h-41.938m85.37 0v31.438h41.938v-30.5c-10.578-.621-22.506-.938-35.969-.938h-5.969m87.47 7.5v22.375h41.938v-3.281c-.447-.32-.891-.655-1.344-.969-11.686-8.08-25.27-14.1-40.594-18.12m42.19 21.281v41.938h35.906c-.041-.083-.084-.166-.125-.25-8.347-17.07-19.42-31.13-33.09-41.688h-2.687m-172.34 1.875v41.563h41.938v-41.563h-41.938m86.59.156v41.938h41.938v-41.938h-41.938m-171.47 2.469v41.938h41.938v-41.938h-41.938m215.03 38.531v23.16c.229.311.462.62.688.938 3.819 5.38 6.687 11.287 8.563 17.875h32.688v-41.969h-41.939m-251.12 3.938v41.938h35.34v-41.938h-35.34m334.78 8.219v28.719h-41.469v41.938h41.938v-40.782h6.563c-1.275-10.343-3.607-20.321-7.03-29.875m-298.69 33.19v41.938h41.938v-41.938h-41.938m224.44 38.563c-1.968 7.419-5.115 13.771-9.406 19.281v22.656h41.938v-41.938h-32.532m74.25.063v27.22c3.038-8.698 5.211-17.791 6.563-27.22h-6.563m-334.78 3.844v41.938h35.34v-41.938h-35.34m293.31 36.937v41.938h4.813c2.751-2.371 5.35-4.886 7.781-7.531 9.624-10.474 17.385-21.981 23.281-34.406h-35.875m-87.72.812c-5.488.847-11.416 1.476-17.875 1.813h17.875v-1.813m1.969 1.219v41.938h41.938v-41.938h-41.938m-129.28.906v.563h41.938v-.563h-41.938m42.687 0v40.844h41.938v-40.844h-41.938m-84.87 1.531v41.938h41.938v-41.938h-41.938m215.03 38.563v23c16.359-4.709 30.374-11.338 41.938-20.03v-2.969h-41.938m-87.47 1.531v30.563h10.844c10.894 0 21.264-.406 31.09-1.219v-29.344h-41.938m-85.37.875v29.688h41.938v-29.688h-41.938m-78.28 1.5v41.969h35.34v-41.969h-35.34m36.09 41.44v41.938h41.938v-41.938h-41.938m-36.09 42.469v41.938h35.34v-41.938h-35.34m36.09 41.41v41.938h41.938v-41.938h-41.938m-36.09 42.469v19.656c0 2.97 1.212 5.932 3.313 8.03 2.1 2.1 5.062 3.313 8.03 3.313h24v-31h-35.34"/><path opacity=".5" d="m129.86 68.17c-6.265 0-11.343 5.079-11.344 11.344v419.59c.0001 6.265 5.079 11.344 11.344 11.344h55.53c6.265 0 11.343-5.079 11.344-11.344v-159.25h96.28c60.916 0 105.37-12.385 131.41-40.719 24.547-26.713 37.06-60.19 37.06-98.28 0-22.342-4.599-43.25-13.875-62.22-9.202-18.818-21.711-34.01-37.37-44.844-15.517-10.734-34.405-17.779-56.22-21.438-.057-.011-.13-.021-.188-.031-15.917-2.875-37.568-4.156-65.69-4.156h-158.28m11.344 22.688h146.94c27.495 0 48.36 1.367 61.813 3.813.053.011.104.021.156.03 19.319 3.221 34.924 9.245 47.22 17.75 12.194 8.437 22.1 20.249 29.875 36.16 7.706 15.759 11.594 32.996 11.594 52.25 0 33.28-10.197 60.23-31.06 82.938-19.375 21.08-56.952 33.375-114.72 33.375h-107.62c-6.265.0001-11.343 5.079-11.344 11.344v159.25h-32.844v-396.91m44.19 26.844c-6.265 0-11.343 5.079-11.344 11.344v149.97c.0001 6.265 5.079 11.342 11.344 11.344h108.47c37.28 0 65.55-6.588 83.969-22.906 17.622-15.615 26.406-38.29 26.406-64.875 0-19.466-5.083-37.08-15.406-51.625-10.229-14.41-24.435-24.47-41.28-29.12-.031-.011-.062-.021-.094-.031-11.789-3.127-29.16-4.094-54.719-4.094h-107.34m11.343 22.687h96c24.729 0 41.825 1.487 48.781 3.313.024.001.07.024.094.03 12.11 3.367 21.22 9.787 28.719 20.344 7.422 10.454 11.219 22.857 11.219 38.5 0 21.881-6.256 36.809-18.781 47.906-11.73 10.395-34.442 17.188-68.906 17.188h-97.12v-127.28h-.0001"/></g></svg>

<?xml version="1.0" encoding="utf-8"?>
<!-- Generator: Adobe Illustrator 15.0.0, SVG Export Plug-In . SVG Version: 6.00 Build 0)  -->
<!DOCTYPE svg PUBLIC "-//W3C//DTD SVG 1.1//EN" "http://www.w3.org/Graphics/SVG/1.1/DTD/svg11.dtd">
<svg version="1.1" xmlns="http://www.w3.org/2000/svg" xmlns:xlink="http://www.w3.org/1999/xlink" x="0px" y="0px" width="580px"
	 height="580px" viewBox="0 0 580 580" enable-background="new 0 0 580 580" xml:space="preserve">
<g id="Layer_1">
	<g id="Layer_2">
		<g id="g1327">
			<path id="path1329" fill="#111111" stroke="#EEEEEE" stroke-width="3.408" d="M66.275,1.768
				c-41.335,0-64.571,21.371-64.571,65.036v450.123c0,40.844,20.895,62.229,62.192,62.229H515.92
				c41.307,0,62.229-20.315,62.229-62.229V66.804c0-42.601-20.924-65.036-63.521-65.036C514.624,1.768,66.133,1.625,66.275,1.768z"
				/>
		</g>
	</g>
</g>
<g id="Layer_3">
	<g>
		<path id="text2419" opacity="0.75" fill="#FFFFFF" enable-background="new    " d="M129.874,69.546
			c-2.97,0.001-5.932,1.213-8.031,3.313c-2.101,2.101-3.313,5.062-3.313,8.031v22.469h35.344V69.546H129.874z M196.812,69.546
			v32.281h41.938V69.546H196.812z M282.187,69.546v31.438h41.938v-30.5c-10.578-0.621-22.506-0.938-35.969-0.938H282.187z
			 M369.655,77.046v22.375h41.938V96.14c-0.447-0.32-0.891-0.655-1.344-0.969C398.563,87.087,384.975,81.074,369.655,77.046z
			 M411.843,98.327v41.938h35.906c-0.041-0.083-0.084-0.166-0.125-0.25c-8.347-17.068-19.42-31.13-33.094-41.688H411.843z
			 M239.499,100.202v41.563h41.938v-41.563H239.499z M326.093,100.358v41.938h41.938v-41.938H326.093z M154.624,102.827v41.938
			h41.938v-41.938H154.624z M369.655,141.358v23.156c0.229,0.311,0.462,0.62,0.688,0.938c3.819,5.38,6.687,11.287,8.563,17.875
			h32.688v-41.969H369.655z M118.53,145.296v41.938h35.344v-41.938H118.53z M453.312,153.515v28.719h-41.469v41.938h41.938V183.39
			h6.563C459.069,173.047,456.737,163.069,453.312,153.515z M154.624,186.702v41.938h41.938v-41.938H154.624z M379.062,225.265
			c-1.968,7.419-5.115,13.771-9.406,19.281v22.656h41.938v-41.938H379.062z M453.312,225.327v27.219
			c3.038-8.698,5.211-17.791,6.563-27.219H453.312z M118.53,229.171v41.938h35.344v-41.938H118.53z M411.843,266.108v41.938h4.813
			c2.751-2.371,5.35-4.886,7.781-7.531c9.624-10.474,17.385-21.981,23.281-34.406H411.843z M324.124,266.921
			c-5.488,0.847-11.416,1.476-17.875,1.813h17.875V266.921z M326.093,268.14v41.938h41.938V268.14H326.093z M196.812,269.046v0.563
			h41.938v-0.563H196.812z M239.499,269.046v40.844h41.938v-40.844H239.499z M154.624,270.577v41.938h41.938v-41.938H154.624z
			 M369.655,309.14v23c16.359-4.709,30.374-11.338,41.938-20.031v-2.969H369.655z M282.187,310.671v30.563h10.844
			c10.894,0,21.264-0.406,31.094-1.219v-29.344H282.187z M196.812,311.546v29.688h41.938v-29.688H196.812z M118.53,313.046v41.969
			h35.344v-41.969H118.53z M154.624,354.483v41.938h41.938v-41.938H154.624z M118.53,396.952v41.938h35.344v-41.938H118.53z
			 M154.624,438.358v41.938h41.938v-41.938H154.624z M118.53,480.827v19.656c0,2.97,1.212,5.932,3.313,8.031
			c2.1,2.1,5.062,3.313,8.031,3.313h24v-31H118.53z"/>
		<path id="text2419-1" opacity="0.5" fill="#FFFFFF" enable-background="new    " d="M129.859,68.173
			c-6.265,0-11.343,5.079-11.344,11.344v419.593c0.001,6.265,5.079,11.344,11.344,11.344h55.531c6.265,0,11.343-5.079,11.344-11.344
			V339.86h96.281c60.916,0,105.369-12.385,131.406-40.719c24.547-26.713,37.063-60.194,37.063-98.281
			c0-22.342-4.599-43.25-13.875-62.219c-9.202-18.818-21.711-34.008-37.375-44.844c-15.517-10.734-34.405-17.779-56.219-21.438
			c-0.057-0.011-0.13-0.021-0.188-0.031c-15.917-2.875-37.568-4.156-65.688-4.156H129.859L129.859,68.173z M141.203,90.86h146.938
			c27.495,0,48.361,1.367,61.813,3.813c0.053,0.011,0.104,0.021,0.156,0.03c19.319,3.221,34.924,9.245,47.219,17.75
			c12.194,8.437,22.096,20.249,29.875,36.156c7.706,15.759,11.594,32.996,11.594,52.25c0,33.275-10.197,60.231-31.063,82.938
			c-19.375,21.085-56.952,33.375-114.719,33.375H185.391c-6.265,0.001-11.343,5.079-11.344,11.344v159.25h-32.844V90.86
			L141.203,90.86z M185.391,117.704c-6.265,0-11.343,5.079-11.344,11.344v149.969c0.001,6.265,5.079,11.342,11.344,11.344h108.469
			c37.28,0,65.552-6.588,83.969-22.906c17.622-15.615,26.406-38.291,26.406-64.875c0-19.466-5.083-37.083-15.406-51.625
			c-10.229-14.41-24.435-24.47-41.281-29.125c-0.031-0.011-0.062-0.021-0.094-0.031c-11.789-3.127-29.16-4.094-54.719-4.094H185.391
			L185.391,117.704z M196.734,140.392h96c24.729,0,41.825,1.487,48.781,3.313c0.024,0.01,0.07,0.024,0.094,0.03
			c12.106,3.367,21.224,9.787,28.719,20.344c7.422,10.454,11.219,22.857,11.219,38.5c0,21.881-6.256,36.809-18.781,47.906
			c-11.73,10.395-34.442,17.188-68.906,17.188h-97.125V140.392L196.734,140.392z"/>
	</g>
</g>
</svg>
